Dominus_Dark_Funeral/22/apps/dotpeek.svg

<svg xmlns="http://www.w3.org/2000/svg" width="24" height="24" version="1"><defs><linearGradient id="a"><stop offset="0" stop-color="#040000"/><stop offset="1" stop-opacity="0"/></linearGradient></defs><path d="M1 1v22h22V1H1zm6.14 3.02h2.45l2.2 2.2v7.59l-2.17 2.17H7.13l-1.47-1.49.8-.78V6.29l-.81-.78 1.49-1.49zm6.61 0h2.49l2.11 2.09v1.88l-3.41 3.4v2.15l.74.75-1.69 1.69-1.65-1.69.74-.75V6.29l-.82-.78 1.49-1.49zm1.09 1.36v3.66l1.85-1.83-1.85-1.83zm-6.52.33v8.64l1.62-1.63V7.33L8.32 5.71zM7.11 17.46h9.78v1.9H7.11v-1.9z" fill="#e6e6e6"/></svg>

<?xml version="1.0" encoding="UTF-8" standalone="no"?>
<svg
   xmlns:dc="http://purl.org/dc/elements/1.1/"
   xmlns:cc="http://creativecommons.org/ns#"
   xmlns:rdf="http://www.w3.org/1999/02/22-rdf-syntax-ns#"
   xmlns:svg="http://www.w3.org/2000/svg"
   xmlns="http://www.w3.org/2000/svg"
   xmlns:sodipodi="http://sodipodi.sourceforge.net/DTD/sodipodi-0.dtd"
   xmlns:inkscape="http://www.inkscape.org/namespaces/inkscape"
   width="24"
   height="24"
   version="1"
   id="svg11"
   sodipodi:docname="dotpeek.svg"
   inkscape:version="0.92.4 (5da689c313, 2019-01-14)">
  <metadata
     id="metadata15">
    <rdf:RDF>
      <cc:Work
         rdf:about="">
        <dc:format>image/svg+xml</dc:format>
        <dc:type
           rdf:resource="http://purl.org/dc/dcmitype/StillImage" />
        <dc:title></dc:title>
      </cc:Work>
    </rdf:RDF>
  </metadata>
  <sodipodi:namedview
     pagecolor="#ffffff"
     bordercolor="#666666"
     borderopacity="1"
     objecttolerance="10"
     gridtolerance="10"
     guidetolerance="10"
     inkscape:pageopacity="0"
     inkscape:pageshadow="2"
     inkscape:window-width="1142"
     inkscape:window-height="480"
     id="namedview13"
     showgrid="false"
     inkscape:zoom="9.8333333"
     inkscape:cx="1.2711864"
     inkscape:cy="12"
     inkscape:window-x="0"
     inkscape:window-y="25"
     inkscape:window-maximized="0"
     inkscape:current-layer="svg11" />
  <defs
     id="defs7">
    <linearGradient
       id="a">
      <stop
         offset="0"
         stop-color="#040000"
         id="stop2" />
      <stop
         offset="1"
         stop-opacity="0"
         id="stop4" />
    </linearGradient>
  </defs>
  <path
     d="M 1,1 V 23 H 23 V 1 Z m 6.14,3.02 h 2.45 l 2.2,2.2 v 7.59 L 9.62,15.98 H 7.13 L 5.66,14.49 6.46,13.71 V 6.29 L 5.65,5.51 Z m 6.61,0 h 2.49 l 2.11,2.09 v 1.88 l -3.41,3.4 v 2.15 l 0.74,0.75 -1.69,1.69 -1.65,-1.69 0.74,-0.75 V 6.29 L 12.26,5.51 Z m 1.09,1.36 V 9.04 L 16.69,7.21 Z M 8.32,5.71 v 8.64 L 9.94,12.72 V 7.33 Z M 7.11,17.46 h 9.78 v 1.9 H 7.11 Z"
     id="path9"
     inkscape:connector-curvature="0"
     style="fill:#e6e6e6" />
</svg>
